X:1
T:Title
%%score { ( 1 3 ) | 2 }
L:1/8
M:4/4
K:G
V:1 treble nm="Grand Piano"
V:3 treble 
V:2 bass 
V:1
 z4 z2[Q:1/4=100] D>D | [B,G]>[B,G] [B,G]>[B,G] F>F E>D | [B,G]>[B,G] [DG]>A B2 d>d | %3
 [Fd]4 [FA]2 [Fe]>[Fd] | d4 B2 D>D | [B,G]>[B,G] [B,G]>[B,G] F>F E>D | [B,G]>[B,G] [DG]>A B2 d>d | %7
 [Fd]4 [CFA]2 [DFB]2 |[M:3/4] [B,DG]6 |[M:1/4] [DGB]>[DAc] |[M:4/4] [DBd]4 [DGB]2 [Ge]2 | %11
 [Gd]6 z2 | d4 [GB]2 z z/ ^C/ |[M:3/4] [FA]6 |[M:1/4] [G,DG]>[DA] |[M:4/4] [DB]2 B2 d2 B>B | %16
[M:9/8] A2 [GB]- [GB] [Gc]2- [Gc][Ge]>[Ge] |[M:4/4] [Gd]4 [CFA]2 [DFB]2 |[M:3/4] [B,DG]6 |] %19
V:2
 z4 z2 D,>D, | [G,,G,]>[G,,G,] [G,,G,]>[G,,G,] [D,A,C]>[D,A,C] [D,G,C]>[D,F,C] | %2
 [G,,G,]>[G,,G,] [B,,G,]>[D,F,D][K:treble] [G,D]2 [G,B,D]>[G,B,G] | [D,A,]4 [D,D]2 [D,C]>[D,C] | %4
 [G,B,G]4 [G,DG]2[K:bass] D,>D, | [G,,G,]>[G,,G,] [G,,G,]>[G,,G,] [D,A,C]>[D,A,C] [D,G,C]>[D,F,C] | %6
 [G,,G,]>[G,,G,] [B,,G,]>[D,F,D][K:treble] [G,D]2 [G,B,D]>[G,B,G] | [D,A,]4 D,2 D,2 |[M:3/4] G,,6 | %9
[M:1/4] G,>G, |[M:4/4] G,4 G,2 [C,C]>[C,C] | [G,B,]>G, G,2 G,2[K:treble] [G,DG]>[A,G] | %12
 [G,B,G]4[K:bass] [E,^C]2 [A,C]>A, |[M:3/4] D,>D, D,2 D,C, |[M:1/4] B,,>[A,,F,] | %15
[M:4/4] [G,,G,]2[K:treble] [G,DG]2 [G,B,G]2 [G,DG]>[G,B,G] | %16
[M:9/8][K:bass] [F,A,D]2 [=F,D]- [F,D] [E,C]2- [E,C][C,C]>[C,C] |[M:4/4] [D,B,]4 D,2 D,2 | %18
[M:3/4] G,,6 |] %19
V:3
 x8 | x8 | x8 | x8 | x8 | x8 | x8 | x8 |[M:3/4] x6 |[M:1/4] x2 |[M:4/4] x8 | z z/ B,/ B,2 B,2 B>c | %12
 z4 z2 [GA]2 |[M:3/4] D>D D2 D2 |[M:1/4] x2 |[M:4/4] x8 |[M:9/8] x9 |[M:4/4] x8 |[M:3/4] x6 |] %19

